X:1
T:James Gibb editions
T:In sweet consent, let all the anthem sing - Barnby
%%score [ ( 1 2 ) ( 3 4 ) ]
L:1/8
Q:1/4=180
M:4/2
K:C
V:1 treble nm="Midi_74"
V:2 treble 
V:3 bass nm="Midi_74"
V:4 bass 
V:1
"^John Mason Neale\n(1818-66)""^10 10. 10 10""^In sweet consent, let all the anthem sing""^Joseph Barnby\n(1838-96)" G8 | %1
w: In~sweet~consent~let~all~the|
 A4 c4 | c8 || c6 c2 | (B4 A4) | G8 || G8 | A4 c4 | c8 || B6 A2 | G4- ^F4 | E8 || B8 | c4 A4 | %14
w: an- them|sing,|Al- le-|lu\- *|ia;|Come,~all~earth's~peoples,~praise~the~E-|ter- nal|King:|Al- le-|lu\- *|ia.|Shout,~choirs~of~angels,~shout~through-|out the|
 B8 || c6 c2 | (B4 A4) | G8 || E8 | A4 G4 | F8 || E6 D2 | (C4 D4) | C8 || F8 E8 |] %25
w: sky,|Al- le-|lu\- *|ia;|And,~ye~blest~souls~in~Para-|dise, re-|ply.|Al- le-|lu\- *|ia.|A- men.|
V:2
 E8 | F4 F4 | E8 || E6 E2 | (E4 C4) | C8 || B,8 | C4 E4 | (E4 ^D4) || E6 ^F2 | (E4 ^D4) | E8 || %12
 E8 | E4 E4 | E8 || E6 E2 | (E4 C4) | C8 || C8 | C4 ^C4 | D8 || A,6 A,2 | (C4 B,4) | C8 || C8 C8 |] %25
V:3
 C6 B,2 | A,4 A,4 | G,8 || A,6 A,2 | (G,4 F,4) | E,8 || G,8 | E,4 E,4 | (E,4 ^F,4) || G,6 C2 | %10
 (B,4 A,4) | G,8 || ^G,8 | A,4 A,4 | ^G,8 || A,6 A,2 | (=G,4 F,4) | E,8 || _B,8 | A,4 A,4 | A,8 || %21
 G,6 F,2 | (E,4 F,4) | E,8 || A,8 G,8 |] %25
V:4
 C,8 | C,4 C,4 | C,8 || A,6 A,2 | (E,4 F,4) | C,8 || E,8 | C,4 A,,4 | A,,8 || G,,6 A,,2 | B,,8 | %11
 E,8 || E,8 | A,4 C,4 | E,8 || A,6 A,2 | (E,4 F,4) | C,8 || C,8 | F,,4 A,,4 | D,8 || F,,6 F,,2 | %22
 G,,8 | C,8 || F,,8 C,8 |] %25

